X:1
T:[ID 7-143]
T:[ID 7-143]
T:Bezeichnung standardisiert: Menuet [mit Trio] 7. Menuet [mit Trio]
T:Urheber unbekannt Datum in der hier transkribierten schriftlichen Quelle: 1776 - 1791
C:Urheber unbekannt
C:Datum in der hier transkribierten schriftlichen Quelle: 1776 - 1791
%%score 1 2
L:1/8
M:3/4
K:Eb
V:1 treble nm="Primo"
V:2 treble nm="Secondo"
V:1
 E2 B,2 G2 | AFDB, E2 | (cB A) B2 e2 |{B} A4 G2 | (BF)(dB)(fd) | edcB=AG | FE D2 C2 |{C} B,6 :: %8
 (B2 F2) d2 | (ec)(=AF) B2 | gbagfe | (dc B) B4 | eBgebg | agfedc | BA G2 F2 |{F} E6 :| %16
[M:3/4]"^Trio"!p! !fermata!B2 B2 B2 | (Bc)(cB) B2 | (A2 F2) A2 |{A} G6 | (c2 e2) .c2 | B3 A G2 | %22
 B2 (cB)(AG) |{G} F6 :: F2 F2 F2 | (FG)(GF) F2 | G2 (GA)(AB) |{B} A4 G2 | (c2 e2) .c2 | %29
 (B2 e2) .B2 | (cB A) G2 F2 |{F} E6 :| %32
V:2
 (!fermata!E2 B,2) .G2 | (AF)(DB,) E2 | (cB A) B2 e2 |{B} A4 G2 | BFdBfd | edcB=AG | FE D2 C2 | %7
{C} B,6 :: (B2 F2) .d2 | (ec)(=AF) B2 | gbagfe | (dc B) B4 | eBgebg | agfedc | BA G2 F2 |{F} E6 :| %16
[M:3/4]!p! .G2 .G2 .G2 | (GA)(AG) G2 | (F2 D2) .F2 |{F} E6 | (A2 c2) A2 | G3 F E2 | G2 (AG)(FE) | %23
{E} D6 :: D2 D2 D2 | (DE)(ED) D2 | E2 (EF)(FG) |{G} F4 E2 | (A2 c2) .A2 | G4 G2 | (AG F) E2 D2 | %31
{D} E6 :| %32

